X: 1839
T: Sûzinâk (Zirgüleli) Seyir
C: Şefik Gürmeriç
O: Turkey
F: http://compmusic.upf.edu/node/140
N: suzinak-zirgule--seyir--sofyan--1--sefik_gurmeric
N: makam= suzinak-zirgule
N: form= seyir
N: usul= sofyan = 4/4
M: 4/4
L: 1/16
K: C _1/4B _7/8e _7/8A ^f
Q: 1/4=60
%%MIDI tuningsystem comma53
c4 d4 d6e2  | f2g2 f2e2 dedc B4  | z2g4gf f3e feed  | 
w:   |   |   | 
d6c2 B2c2 d4  | z2d4e2 d2c2 B2c2  | d4 e2f2 g8  | \
w:   |   |   | 
f2g4b2 a3g g3f  | 
w:   | 
f3e e2d2 gfed cBc2  | z2d2 e2g2 f2e2 e2d2  | \
w:   |   | 
d3c dccB B8  | 
w:   | 
z2c4e2 d2c2 c2B2  | B3A BAAG G8  | |


